X: 931
T: Güldeste Sazsemâîsi
C: Dede Salih Efendi
O: Turkey
F: http://compmusic.upf.edu/node/140
N: guldeste--sazsemaisi--aksaksemai----dede_salih_efendi
N: makam= guldeste
N: form= sazsemaisi
N: usul= aksaksemai = 10/8
M: 10/8
L: 1/16
K: C ^d ^9/8f  
Q: 1/4=132
%%MIDI tuningsystem comma53
e4 d2e4fg f2e4d2  | c4 B2^A4B4c4d2  | \
w:  1. HANE  |   | 
e4 f2g2 fegf ede4z2  | 
w:   | 
e4 f2g4gf gag2 f2e2  | d4 c2B4e2 def2 g2a2  | \
w:   |   | 
f4 e2fg fegf ede4z2  | 
w:   | 
e4 d2f2 g2f2 e2d4c2  | B4 c2d4e2 f2g2 f2e2  | \
w:  MÜLÂZİME  |   | 
d4 c2e2 dccB ^A2B4z2  | 
w:   | 
A4 e2=d4c4B4A2  | G4 A2B4c2 =d2B4A2  | \
w:   |   | 
G4 F2E4B3/2A/ GAG4z2  | 
w:   | 
G4 A2G4A2 GAB4c2  | d4 e2fg fefe def4z2  | \
w:  2. HANE  |   | 
e4 f2g4a2 gab4a2  | 
w:   | 
g4 f2e4d4e4z2  | B4 c2d4e2 def4g2  | \
w:   |   | 
a4 g2f3egf ede4z2  | 
w:   | 
e4 d2f2 g2f2 e2d4c2  | B4 c2d4e2 f2g2 f2e2  | \
w:  MÜLÂZİME  |   | 
d4 c2e2 dccB ^A2B4z2  | 
w:   | 
A4 e2=d4c4B4A2  | G4 A2B4c2 =d2B4A2  | \
w:   |   | 
G4 F2E4B3/2A/ GAG4z2  | 
w:   | 
g4 f2g4ab agf4e2  | d2e2 f2g4ba gfg4z2  | \
w:  3. HANE  |   | 
a4 b2a4=d'2 c'2b4a2  | 
w:   | 
g4 f2e4fg fe=d4z2  | e4 f2g2 fee2 b2a4g2  | \
w:   |   | 
f4 e2fg fegf ede4z2  | 
w:   | 
e4 d2f2 g2f2 e2d4c2  | B4 c2d4e2 f2g2 f2e2  | \
w:  MÜLÂZİME  |   | 
d4 c2e2 dccB ^A2B4z2  | 
w:   | 
A4 e2=d4c4B4A2  | G4 A2B4c2 =d2B4A2  | \
w:   |   | 
G4 F2E4B3/2A/ GAG4z2  | 
w:   | 
z10  | d2 ef2g2f g2  | a2 gf2e2d c2  | B3B2e2e3  | \
w:  |  4. HANE  |   |   | 
d2 ef2g2f g2  | 
w:   | 
a2 gf2f2e d2  | e3e2e2e3  | b2 ^ab2g2g3  | \
w:   |   |   | 
b2 ^ab2c'2b =a2  | 
w:   | 
g2 fe2d2d3  | B2 cd2e2f g2  | a2 gf2f2e d2  | \
w:   |   |   | 
e3e2e2e3  | 
w:   | 
z20  | e4 d2f2 g2f2 e2d4c2  | B4 c2d4e2 f2g2 f2e2  | \
w:  |  MÜLÂZİME  |   | 
d4 c2e2 dccB ^A2B4z2  | 
w:   | 
A4 e2=d4c4B4A2  | G4 A2B4c2 =d2B4A2  | \
w:   |   | 
G4 F2E4B3/2A/ GAG4z2  | 
w:   | 
|


